!!!COM:	Martini, Johannes
!!!CDT:	~1440///-~1497//
!!!OPR:	Missa Cucu
!!!ONM:	2
!!!OTL:	Gloria
!!!AGN:	Mass; Gloria
!!!SCT:	Mar1003b
!!!SCA:	Mar1003b
!!!voices:	4
!!!voices-OPR:	4
**kern	**kern	**kern	**kern
*staff4	*staff3	*staff2	*staff1
*Ivox	*Ivox	*Ivox	*Ivox
*I"Bassus	*I"Tenor	*I"Altus	*I"Superius
*I'B	*I'T	*I'A	*I'S
*>[A,B,C,D]	*>[A,B,C,D]	*>[A,B,C,D]	*>[A,B,C,D]
*>A	*>A	*>A	*>A
*clefF4	*clefGv2	*clefGv2	*clefG2
*k[]	*k[]	*k[]	*k[]
*M3/1	*M3/1	*M3/1	*M3/1
*met(O)	*met(O)	*met(O)	*met(O)
!!section: Et in terra pax
!!!OMD: Et in terra pax
=1-	=1-	=1-	=1-
0D	0.r	0d	0a
1E	.	2B\	1g
.	.	2c\	.
=2	=2	=2	=2
1.D	0.r	1d	1.f
.	.	2D/	.
2C/	.	2E/	2e/
1BB-	.	2F/	1d
.	.	2G/	.
=3	=3	=3	=3
1AA	0.r	2A/	2c/
.	.	1c	1e
2C/	.	.	.
2D\	.	4B\	4d/
.	.	4A/	4c/
1E	.	1G#	1B
=4	=4	=4	=4
2r	0.r	1A	1A
1AA	.	.	.
.	.	1c	2r
2AA/	.	.	2e/
2D\	.	2d\	2f/
2C/	.	2e\	2g/
=5	=5	=5	=5
2F\	0.r	2A/	2a/
1G	.	1d	2.b\
.	.	.	4a/
2A\	.	2c\	2.a/
1E	.	1B	.
.	.	.	8g#i/L
.	.	.	8f#i/J
.	.	.	2g#i/
=6	=6	=6	=6
0AA	[0.c	0A	0a
2.C/	.	1G	2.e/
4D\	.	.	4f/
=7	=7	=7	=7
2E\	0.c]	2G/	2g/
1F	.	2F/	1a
.	.	2.A/	.
4E\	.	.	4g/
4D\	.	8G/L	4f/
.	.	8F/J	.
1C	.	1G	1e
=8	=8	=8	=8
0D	[0.A	0F	2d/
.	.	.	1f
.	.	.	4e/
.	.	.	4d/
[1AA	.	1E	1c
=9	=9	=9	=9
1AA]	0A]	1c	1e
1D	.	2.d\	1f
.	.	4c\	.
1E	1r	4B\	1g
.	.	4A/	.
.	.	2B\	.
=10	=10	=10	=10
1.F	0.c	1A	1a
.	.	1r	2a/
4E\	.	.	1g
4D\	.	.	.
2C/	.	1r	.
[2F\	.	.	4f/
.	.	.	4g/
=11	=11	=11	=11
4F\]	0.A	2c\	2.a/
4E\	.	.	.
2D\	.	2d\	.
.	.	.	8g/L
.	.	.	8f/J
2C/	.	2e\	2e/
1D	.	2f\	2d/
.	.	1d	2f/
4C/	.	.	4e/
4BB/	.	.	4d/
=12	=12	=12	=12
1AA	0.r	1c	2e/
.	.	.	2c/
2BB/	.	2B\	2d/
2.C/	.	2A/	2.e/
.	.	2.G#i/	.
4D\	.	.	4d/
2E\	.	.	2B/
.	.	4F#i/	.
=13	=13	=13	=13
1AA	1r	1.A	2A/
.	.	.	2c/
1D	1r	.	2d/
.	.	2F/	2f/
1C	1c	1G	1e
=14	=14	=14	=14
1D	0A	1F	2f/
.	.	.	1a
1F	.	1D	.
.	.	.	4g/
.	.	.	4f/
1E	1c	2r	1g
.	.	2G/	.
=15	=15	=15	=15
1D	1d	2A/	1f
.	.	2B\	.
1C	1e	1c	2r
.	.	.	2e/
1D	1d	1A	4f/
.	.	.	4g/
.	.	.	[2a/
=16	=16	=16	=16
1AA	1c	0e	4a/]
.	.	.	4g/
.	.	.	2a/
0E	0B	.	2b\
.	.	.	2.g#i/
.	.	1e	.
.	.	.	4f#i/
.	.	.	2g#/
=17	=17	=17	=17
0AA	[0.A	1c	1.a
.	.	2A/	.
.	.	2B\	4g/
.	.	.	4f/
1r	.	1c	1e
=18	=18	=18	=18
1D	0.A]	1d	1f
2C/	.	2e\	2e/
2.D\	.	2.f\	2d/
.	.	.	1a
4E\	.	8e\L	.
.	.	8d\J	.
2F\	.	2c\	.
=19	=19	=19	=19
2E\	0.r	2c\	2g/
1D	.	2d\	2.f/
.	.	2r	.
.	.	.	8e/L
.	.	.	8d/J
2C/	.	2G/	2e/
2D\	.	2F/	2A/
2BB/	.	2G/	2d/
=20	=20	=20	=20
2AA/	0.r	2A/	2c/
1D	.	2.F/	2.B/
.	.	4E/	4A/
2C/	.	1E	1A
1BB	.	.	.
.	.	2D/	2G#i/
=21	=21	=21	=21
0AA	0c	1E	1A
.	.	0A	2r
.	.	.	2A/
1AA	1A	.	2c/
.	.	.	2d/
=22	=22	=22	=22
1C	1r	2G/	1e
.	.	2.A/	.
1D	1r	.	2f/
.	.	4G/	.
.	.	2F/	1a
2AA/	1c	1E	.
2C/	.	.	2g/
=23	=23	=23	=23
2D\	0A	2F/	1f
1F	.	2D/	.
.	.	2r	2d/
4E\	.	2d\	2f/
4D\	.	.	.
1E	1G	2B\	2g/
.	.	2c\	2e/
=24	=24	=24	=24
0D	1A	1d	1f
.	0F	1A	1.d
1BB-	.	1B-	.
.	.	.	4c/
.	.	.	4d/
=25	=25	=25	=25
1C	0.E	1G	1e
1AA	.	1A	1c
1C	.	1G	2r
.	.	.	2c/
=26	=26	=26	=26
0BB-	1F	1r	2d/
.	.	.	1f
.	0G	0D	.
.	.	.	2e/
1BB-	.	.	2d/
.	.	.	4c/
.	.	.	4B/
=27	=27	=27	=27
1AA	0.A	1E	1c
0D	.	1.F	2d/
.	.	.	2.f/
.	.	.	4e/
.	.	4E/	4d/
.	.	4F/	4c/
=28	=28	=28	=28
1GG	1d	1G	1B
1AA	1c	1E	2.A/
.	.	.	4B/
2AA/	2A/	2F/	2c/
2GG/	2B\	2G/	[2d/
=29	=29	=29	=29
2.D\	1A	2F/	2d/]
.	.	2D/	2f/
4GG/	.	.	.
2C/	2G/	2r	4e/
.	.	.	4d/
2D\	2F/	1A	2.d/
1AA	1E	.	.
.	.	.	4c#i/
.	.	2A/	4c#i/
.	.	.	4B/
=30	=30	=30	=30
1BB-	0D	1F	0.d
0GG	.	2G/	.
.	.	1B-	.
.	1r	.	.
.	.	2B-\	.
=31	=31	=31	=31
1AA	0c	1.A	1r
2r	.	.	1e
2C/	.	2G/	.
2D\	1A	2F/	2.f/
[2F\	.	[2A/	.
.	.	.	4d/
=32	=32	=32	=32
2F\]	1c	2A/]	2f/
2E\	.	2G/	2g/
2F\	1A	2c\	2a/
2D\	.	2d\	2f/
1D	1d	1f	2a/
.	.	.	2b\
=33	=33	=33	=33
2r	2c\	2e\	2a/
2AA/	1e	2c\	1cc
2C/	.	2e\	.
2D\	4d\	2f\	4b\
.	4c\	.	4a/
1E	1B	1e	2.g#i/
.	.	.	4f#i/
=34	=34	=34	=34
1.AA	0A	2c\	1a
.	.	2A/	.
.	.	2c\	1r
1D	.	2d\	.
.	1r	2f\	[1a
4C/	.	4e\	.
4BB/	.	4d\	.
=35	=35	=35	=35
2AA/	1c	1e	2a/]
2C/	.	.	2g/
1D	1A	2d\	1f
.	.	2D/	.
1BB-	1r	2F/	1d
.	.	2G/	.
=36	=36	=36	=36
0AA	1c	1A	1r
.	1A	2r	1c
.	.	1A	.
1F	1r	.	1A
.	.	2F/	.
=37	=37	=37	=37
1C	1c	2G/	1.e
.	.	2A/	.
0D	1A	0F	.
.	.	.	2d/
.	1r	.	2d/
.	.	.	4c/
.	.	.	4d/
=38	=38	=38	=38
1AA	0c	2E/	0e
.	.	2.A/	.
2r	.	.	.
.	.	8G/L	.
.	.	8F/J	.
1AA	.	2.E/	.
.	1A	.	1c
.	.	4F/	.
2AA/	.	2E/	.
=39	=39	=39	=39
2BB/	0.r	2D/	1d
2D\	.	2F/	.
1AA	.	2E/	2c/
.	.	2.A/	2A/
1E	.	.	1B
.	.	8G#i/L	.
.	.	8F#i/J	.
.	.	2G#i/	.
=40	=40	=40	=40
1AA	0.r	0A	1A
0D	.	.	1r
.	.	1d	1r
=41	=41	=41	=41
1r	0.r	2c\	0.r
.	.	2.d\	.
1D	.	.	.
.	.	4e\	.
.	.	2f\	.
2C/	.	2e\	.
[2D\	.	4d\	.
.	.	[4f\	.
=42	=42	=42	=42
4D\]	0.r	4f\]	0.r
4E\	.	4e\	.
2F\	.	4d\	.
.	.	8c\L	.
.	.	8B\J	.
2E\	.	2c\	.
4D\	.	2d\	.
2F\	.	.	.
.	.	2r	.
4E\	.	.	.
4D\	.	2F/	.
8C/L	.	.	.
8BB/J	.	.	.
=43	=43	=43	=43
2C/	0.r	2E/	0.r
2D\	.	4D/	.
.	.	4F/	.
2C/	.	4G/	.
.	.	2A/	.
2BB/	.	.	.
.	.	4G/	.
4AA/	.	2A/	.
4C/	.	.	.
4D\	.	4r	.
[4E\	.	4G/	.
=44	=44	=44	=44
4E\]	0.r	4c\	0.r
4D\	.	4d\	.
2E\	.	2B\	.
4r	.	2.d\	.
4D\	.	.	.
4G\	.	.	.
4A\	.	4c\	.
2F\	.	2A/	.
[2A\	.	2f\	.
=45	=45	=45	=45
4A\]	0.r	2.e\	0.r
4G\	.	.	.
2E\	.	.	.
.	.	2c\	.
2D\	.	.	.
.	.	4B\	.
2C/	.	4c\	.
.	.	4A/	.
1BB	.	4B\	.
.	.	2G#i/	.
.	.	4F#i/	.
=46	=46	=46	=46
0.AA	1r	0A	2.c/
.	.	.	4d/
.	1r	.	2e/
.	.	.	2f/
.	[1c	2r	2e/
.	.	2A/	[2a/
=47	=47	=47	=47
2r	1c]	2F/	2a/]
2C/	.	2E/	2g/
2D\	1.A	2D/	2f/
2AA/	.	2.E/	2.e/
2C/	.	.	.
.	.	4F/	4c/
2GG/	2B\	2G/	2d/
=48	=48	=48	=48
1AA	2A/	1E	4c/
.	.	.	4B/
.	2.c\	.	2A/
1FF	.	1F	2r
.	4B\	.	.
.	2A/	.	2f/
1C	1G	2r	4g/
.	.	.	2e/
.	.	2c\	.
.	.	.	8d/L
.	.	.	8e/J
=49	=49	=49	=49
1D	1F	2A/	1f
.	.	2F/	.
1C	0c	2G/	0e
.	.	1A	.
[1AA	.	.	.
.	.	4G/	.
.	.	4F/	.
=50	=50	=50	=50
1AA]	1r	1E	1A
0BB-	1F	1r	1r
.	1G	1D	1d
=51	=51	=51	=51
1AA	0A	1E	1c
0D	.	1r	1.d
.	1F	2.A/	.
.	.	.	4c/
.	.	4B\	4d/
=52	=52	=52	=52
1AA	1E	1c	1e
1r	2D/	1d	2f/
.	2F/	.	2.d/
1AA	1E	2r	.
.	.	.	4c#i/
.	.	2e\	4c#i/
.	.	.	4B/
=53	=53	=53	=53
1D	2D/	2f\	1d
.	2F/	4d\	.
.	.	4f\	.
2C/	2G/	4e\	2r
.	.	2c\	.
2AA/	1.A	.	2e/
.	.	4B\	.
1D	.	2d\	2d/
.	.	2A/	2f/
=54	=54	=54	=54
2G\	2B\	2r	2g/
2F\	2c\	2A/	1a
1D	1d	2F/	.
.	.	1A	2f/
2F\	2c\	.	2a/
2E\	[2e\	2B\	[2g/
=55	=55	=55	=55
2C/	2e\]	2c\	4g/]
.	.	.	8f/L
.	.	.	8e/J
2D\	2d\	1A	2f/
1AA	1c	.	2e/
.	.	2.e\	2.a/
1E	1B	.	.
.	.	4c\	4g#i/
.	.	4d\	4g#i/
.	.	4e\	4f#i/
=56	=56	=56	=56
0.AAl	0.Al	0.cl	0.al
!!LO:LB:i:g=z
=57||	=57||	=57||	=57||
*>B	*>B	*>B	*>B
*clefF4	*clefGv2	*clefGv2	*clefG2
*k[]	*k[]	*k[]	*k[]
*M3/1	*M3/1	*M3/1	*M3/1
*met(O)	*met(O)	*met(O)	*met(O)
!!section: Domine Deus
!!!OMD: Domine Deus
0.r	0.r	1d	0.r
.	.	1.d	.
.	.	4c\	.
.	.	4B\	.
=58	=58	=58	=58
0.r	0.r	1A	1a
.	.	2D/	1.a
.	.	2.F/	.
.	.	4G/	.
.	.	4F/	4g/
.	.	8E/L	4f/
.	.	8D/J	.
=59	=59	=59	=59
0.r	0.r	1C	1e
.	.	1D	2d/
.	.	.	2.f/
.	.	2r	.
.	.	.	4g/
.	.	2d\	4f/
.	.	.	8e/L
.	.	.	8d/J
=60	=60	=60	=60
0.r	0.r	2.e\	1c
.	.	4f\	.
.	.	4e\	2A/
.	.	8d\L	.
.	.	8c\J	.
.	.	2B\	2G/
.	.	1A	2r
.	.	.	2c/
=61	=61	=61	=61
0.r	0.r	1B	2.d/
.	.	.	4e/
.	.	1A	2f/
.	.	.	1e
.	.	2r	.
.	.	2c\	2A/
=62	=62	=62	=62
0.r	0.r	2d\	2B/
.	.	2e\	2c/
.	.	2f\	1A
.	.	1e	.
.	.	.	2r
.	.	2A/	2a/
=63	=63	=63	=63
0.r	0.r	2B\	2.g/
.	.	2c\	.
.	.	.	8f/L
.	.	.	8e/J
.	.	1A	2f/
.	.	.	1e
.	.	2r	.
.	.	2A/	2c/
=64	=64	=64	=64
0.r	0.r	2.G/	2d/
.	.	.	2B/
.	.	8F/L	.
.	.	8E/J	.
.	.	2F/	2A/
.	.	1E	2r
.	.	.	2.c/
.	.	2F/	.
.	.	.	4d/
=65	=65	=65	=65
0.r	0.r	2G/	4e/
.	.	.	4f/
.	.	2E/	2g/
.	.	2D/	2f/
.	.	2r	1d
.	.	2.G/	.
.	.	.	2e/
.	.	4A/	.
=66	=66	=66	=66
0.r	0.r	4B\	2d/
.	.	4c\	.
.	.	2d\	2f/
.	.	2c\	4e/
.	.	.	2e/
.	.	2A/	.
.	.	.	8d/L
.	.	.	8c/J
.	.	2B\	2d/
.	.	2A/	2c/
=67	=67	=67	=67
0.r	0.r	2f\	2d/
.	.	4e\	4A/
.	.	2e\	2c/
.	.	8d\L	8B/L
.	.	8c\J	8A/J
.	.	2d\	2B/
.	.	2c\	2A/
.	.	2d\	2r
=68	=68	=68	=68
0.r	0.r	4A/	1a
.	.	2c\	.
.	.	8B/L	.
.	.	8A/J	.
.	.	2B\	2g/
.	.	2A/	2a/
.	.	2r	2f/
.	.	[2A/	4f/
.	.	.	[4e/
=69	=69	=69	=69
0.r	0.r	2A/]	4e/]
.	.	.	8d/L
.	.	.	8c/J
.	.	2G/	2B/
.	.	2A/	2A/
.	.	2.F/	2r
.	.	.	4A/
.	.	2E/	4B/
.	.	.	2c/
.	.	8D/L	.
.	.	8C/J	.
=70	=70	=70	=70
0.r	0.r	2BB/	2d/
.	.	2AA/	2e/
.	.	2r	2.f/
.	.	4AA/	.
.	.	4BB/	8e/L
.	.	.	8d/J
.	.	2C/	2e/
.	.	2D/	2d/
=71	=71	=71	=71
0.r	0.r	2E/	2r
.	.	2.F/	2d/
.	.	.	2a/
.	.	8E/L	.
.	.	8D/J	.
.	.	2E/	2.g/
.	.	1D	.
.	.	.	8f/L
.	.	.	8e/J
.	.	.	2f/
=72	=72	=72	=72
0.r	0.r	2r	4g/
.	.	.	2a/
.	.	2D/	.
.	.	.	4b\
.	.	2A/	2.cc\
.	.	2.G/	.
.	.	.	8b/L
.	.	.	8a/J
.	.	.	2b\
.	.	8F/L	.
.	.	8E/J	.
.	.	2F/	2a/
=73	=73	=73	=73
0.r	0.r	4G/	2.e/
.	.	2A/	.
.	.	4A/	4f/
.	.	4B\	2g/
.	.	2c\	.
.	.	.	2.a/
.	.	4.d\	.
.	.	8c\L	.
.	.	8B\	8g#i/L
.	.	8A\J	8f#i/J
.	.	2B\	2g#i/
=74	=74	=74	=74
0.r	0.r	0.Al	0.al
!!LO:LB:i:g=z
=75||	=75||	=75||	=75||
*>C	*>C	*>C	*>C
*clefF4	*clefGv2	*clefGv2	*clefG2
*k[]	*k[]	*k[]	*k[]
*M2/1	*M2/1	*M2/1	*M2/1
*met(C|)	*met(C|)	*met(C|)	*met(C|)
!!section: Qui tollis
!!!OMD: Qui tollis
0r	0r	0A	0r
=76	=76	=76	=76
0r	0r	0d	0r
=77	=77	=77	=77
1AA	0r	1c	0r
1BB	.	1d	.
=78	=78	=78	=78
1AA	0r	1e	0r
[1D	.	1f	.
=79	=79	=79	=79
2D\]	0r	0e	0r
4C/	.	.	.
4BB/	.	.	.
1C	.	.	.
=80	=80	=80	=80
1D	0r	1A	0r
2r	.	1B	.
[2D\	.	.	.
=81	=81	=81	=81
2D\]	0r	1A	0r
2C/	.	.	.
2D\	.	[1d	.
[2BB/	.	.	.
=82	=82	=82	=82
2BB/]	0r	2d\]	0r
4AA/	.	4c\	.
4GG/	.	4B\	.
1AA	.	1c	.
=83	=83	=83	=83
1r	0r	2d\	0r
.	.	1B	.
1D	.	.	.
.	.	4A/	.
.	.	4G/	.
=84	=84	=84	=84
2C/	0r	1A	0r
1F	.	.	.
.	.	1r	.
2E\	.	.	.
=85	=85	=85	=85
2F\	0r	1d	0r
2G\	.	.	.
2E\	.	1c	.
[2A\	.	.	.
=86	=86	=86	=86
2A\]	0r	1.f	0r
1D	.	.	.
2AA/	.	2e\	.
=87	=87	=87	=87
2BB/	0r	2d\	0r
2C/	.	2c\	.
2D\	.	1B	.
2E\	.	.	.
=88	=88	=88	=88
2C/	0r	1A	0r
1D	.	.	.
.	.	2D/	.
2C/	.	2E/	.
=89	=89	=89	=89
2D\	0r	2F/	0r
2F\	.	2D/	.
1E	.	2r	.
.	.	2c\	.
=90	=90	=90	=90
2r	0r	2d\	0r
2D\	.	1f	.
1A	.	.	.
.	.	2e\	.
=91	=91	=91	=91
2D\	0r	2f\	0r
2F\	.	4e\	.
.	.	4d\	.
1E	.	1c#i	.
=92	=92	=92	=92
1D	0r	1d	0r
2r	.	1A	.
2C/	.	.	.
=93	=93	=93	=93
2D\	0r	2B-\	0r
2F\	.	1A	.
1E	.	.	.
.	.	2G/	.
=94	=94	=94	=94
1D	0r	2F/	0r
.	.	4E/	.
.	.	4D/	.
2r	.	1E	.
2G\	.	.	.
=95	=95	=95	=95
2F\	0r	1r	0r
1E	.	.	.
.	.	1e	.
2C/	.	.	.
=96	=96	=96	=96
2D\	0r	2f\	0r
2C/	.	1e	.
2AA/	.	.	.
2r	.	2d\	.
=97	=97	=97	=97
2E\	0r	2c\	0r
4D\	.	4B\	.
4C/	.	4A/	.
2D\	.	2B\	.
2E\	.	[2c\	.
=98	=98	=98	=98
1AA	0r	4c\]	0r
.	.	4B\	.
.	.	1A	.
1BB	.	.	.
.	.	2G#i/	.
=99	=99	=99	=99
[0AA	[0c	[0A	0r
=100	=100	=100	=100
0AA]	0c_	0A]	1.e
.	.	.	2f/
=101	=101	=101	=101
0r	0c_	1E	1g
.	.	1F	[1a
=102	=102	=102	=102
1.AA	0c]	1E	2a/]
.	.	.	4g/
.	.	.	4f/
.	.	[1e	1g
2BB/	.	.	.
=103	=103	=103	=103
1C	[0A	1e]	1a
[1D	.	1d	2a/
.	.	.	[2f/
=104	=104	=104	=104
2D\]	0A]	1r	2f/]
4BB/	.	.	2d/
4AA/	.	.	.
1C	.	1E	1e
=105	=105	=105	=105
1D	0r	1F	2d/
.	.	.	1f
1C	.	1G	.
.	.	.	4e/
.	.	.	4d/
=106	=106	=106	=106
0AA	0c	0A	1e
.	.	.	1A
=107	=107	=107	=107
[0D	0A	0F	1r
.	.	.	[1a
=108	=108	=108	=108
0D]	0F	0r	2a/]
.	.	.	2g/
.	.	.	2.f/
.	.	.	4e/
=109	=109	=109	=109
0C	[0G	0r	1.e
.	.	.	4d/
.	.	.	4c/
=110	=110	=110	=110
0BB	0G]	0D	0d
=111	=111	=111	=111
0AA	[0A	0E	0c
=112	=112	=112	=112
1D	0A]	1F	1d
[1C	.	1E	[1e
=113	=113	=113	=113
2C/]	0r	1A	2e/]
2D\	.	.	2f/
1E	.	1G	1g
=114	=114	=114	=114
1F	0c	1c	0a
2r	.	1F	.
[2F\	.	.	.
=115	=115	=115	=115
2F\]	0A	1r	1a
2D\	.	.	.
2F\	.	1D	2a/
4E\	.	.	4g/
4D\	.	.	4f/
=116	=116	=116	=116
2.C/	1r	1G	2.e/
4BB/	.	.	4d/
1C	1c	1E	1e
=117	=117	=117	=117
[0D	0A	1.F	0d
.	.	2G/	.
=118	=118	=118	=118
0D]	[0d	0A	1r
.	.	.	1d
=119	=119	=119	=119
0BB-	0d]	0D	1f
.	.	.	1g
=120	=120	=120	=120
1AA	0c	1r	1.a
1C	.	1A	.
.	.	.	4g/
.	.	.	4f/
=121	=121	=121	=121
1BB	1d	1B	1g
[1AA	[1e	[1c	1a
=122	=122	=122	=122
2AA/]	1e]	2c\]	1.cc
2BB/	.	2d\	.
2C/	1A	[1e	.
2D\	.	.	4b\
.	.	.	4a/
=123	=123	=123	=123
1E	1G	2e\]	2.b\
.	.	2c\	.
.	.	.	4a/
1F	1A	1d	[1a
=124	=124	=124	=124
0E	0B	0e	2a/]
.	.	.	2g#i/
.	.	.	2g#i/
.	.	.	2f#i/
=125	=125	=125	=125
1F	[0A	1c	1a
1D	.	1d	1f
=126	=126	=126	=126
2C/	0A_	2e\	2e/
1D	.	2f\	2d/
.	.	1d	2f/
4C/	.	.	4e/
4BB/	.	.	4d/
=127	=127	=127	=127
1.AA	0A_	1e	1c
.	.	1r	1f
[2D\	.	.	.
=128	=128	=128	=128
2D\]	0A]	1r	0e
4C#i/	.	.	.
4BB/	.	.	.
1C#i	.	2r	.
.	.	[2A/	.
=129	=129	=129	=129
1D	0r	2A/]	1d
.	.	2F/	.
2E\	.	2G/	2r
2F\	.	2A/	[2a/
=130	=130	=130	=130
1D	0r	1F	2a/]
.	.	.	2f/
2C/	.	2E/	2g/
[2F\	.	[2D/	2a/
=131	=131	=131	=131
4F\]	0r	2D/]	1f
4G\	.	.	.
[1.A	.	4C/	.
.	.	4BB/	.
.	.	2C/	2e/
.	.	2D/	[2d/
=132	=132	=132	=132
2A\]	0r	2F/	2d/]
1AA	.	1E	4c/
.	.	.	4B/
.	.	.	2c/
[2D\	.	2D/	[2d/
=133	=133	=133	=133
2D\]	0r	2F/	2d/]
2C/	.	2G/	1e
2AA/	.	2A/	.
[2D\	.	[2F/	4d/
.	.	.	4c/
=134	=134	=134	=134
2D\]	0r	4F/]	4d/
.	.	4E/	4c/
2C/	.	4D/	4B/
.	.	4C/	4A/
1BB	.	2.D/	2.G#i/
.	.	4C/	4F#i/
=135	=135	=135	=135
[0AA	[0A	[0E	1A
.	.	.	1r
=136	=136	=136	=136
0AA]	0A_	1E]	1.c
.	.	1r	.
.	.	.	2d/
=137	=137	=137	=137
1r	0A]	1c	1e
1D	.	2d\	1f
.	.	2f\	.
=138	=138	=138	=138
1E	1G	2e\	1g
.	.	2c\	.
1D	1A	1d	[1f
=139	=139	=139	=139
1E	1G	1B	2f/]
.	.	.	2e/
1C	1E	1c	[1e
=140	=140	=140	=140
0D	0F	1A	2e/]
.	.	.	4d/
.	.	.	4c/
.	.	1B	1d
=141	=141	=141	=141
[0AA	0E	1.A	0e
.	.	4G/	.
.	.	4F/	.
=142	=142	=142	=142
0AA]	[0A	1E	0c
.	.	1e	.
=143	=143	=143	=143
[0D	0A]	1f	1d
.	.	[1d	[1f
=144	=144	=144	=144
0D]	0F	2d\]	2f/]
.	.	4c\	2e/
.	.	4B\	.
.	.	1A	1d
=145	=145	=145	=145
0GG	0B-i	0G	1r
.	.	.	1d
=146	=146	=146	=146
1AA	0A	1r	1c
[1C	.	[1c	[1e
=147	=147	=147	=147
1C]	1G	1c]	2e/]
.	.	.	2d/
1D	1F	1B	[1d
=148	=148	=148	=148
0AA	0E	1A	2d/]
.	.	.	2c#i/
.	.	2r	2c#i/
.	.	[2A/	2B/
=149	=149	=149	=149
1r	0D	2A/]	1d
.	.	2B\	.
1D	.	2A/	1f
.	.	2d\	.
=150	=150	=150	=150
1E	0r	2.c\	1g
.	.	4B\	.
2D\	.	1d	[1a
[2F\	.	.	.
=151	=151	=151	=151
2F\]	0c	1f	1a]
4E\	.	.	.
4D\	.	.	.
1C	.	1e	1g
=152	=152	=152	=152
1D	0A	1d	1f
[1AA	.	[1c	[1e
=153	=153	=153	=153
0AA]	0r	2c\]	2e/]
.	.	2d\	2d/
.	.	1e	2c/
.	.	.	2B/
=154	=154	=154	=154
1D	0f	1d	1A
1F	.	2c\	2r
.	.	[2d\	2a/
=155	=155	=155	=155
1G	0d	2d\]	2b\
.	.	2e\	2cc\
2D\	.	2f\	2dd\
[2G\	.	[2d\	[2b\
=156	=156	=156	=156
2G\]	0r	4d\]	4b\]
.	.	4c\	4a/
2F\	.	2A/	1a
1E	.	1B	.
.	.	.	2g#i/
=157	=157	=157	=157
0AA	0c	0A	1.a
.	.	.	2g/
=158	=158	=158	=158
1D	0A	0r	1f
1E	.	.	2e/
.	.	.	[2c/
=159	=159	=159	=159
0F	0r	0A	2c/]
.	.	.	4A/
.	.	.	4B/
.	.	.	2c/
.	.	.	[2d/
=160	=160	=160	=160
0BB-	0B-	0d	4d/]
.	.	.	4e/
.	.	.	2f/
.	.	.	4g/
.	.	.	4f/
.	.	.	4e/
.	.	.	4d/
=161	=161	=161	=161
0C	0G	0c	1e
.	.	.	1c
=162	=162	=162	=162
0GG	0r	1B	1d
.	.	1d	1B
=163	=163	=163	=163
1r	0F	1c	1A
1D	.	1d	2r
.	.	.	[2a/
=164	=164	=164	=164
1F	0D	2A/	4a/]
.	.	.	4g/
.	.	1d	4f/
.	.	.	4e/
1D	.	.	1f
.	.	4c\	.
.	.	4d\	.
=165	=165	=165	=165
1C	1E	1e	1g
1D	1F	1A	2f/
.	.	.	2e/
=166	=166	=166	=166
0BB	0G	1r	0d
.	.	1D	.
=167	=167	=167	=167
1AA	0A	1E	1c
1D	.	1F	1f
=168	=168	=168	=168
1C	0c	1G	1e
1AA	.	1A	1a
=169	=169	=169	=169
[0E	[0B	1G	1b
.	.	1E	[1g#i
=170	=170	=170	=170
0E]	0B]	[0e	2g#/]
.	.	.	2f#i/
.	.	.	1g#i
=171	=171	=171	=171
[0AA	0A	0e]	[0a
=172	=172	=172	=172
0AA]	0c	0c	0a]
=173	=173	=173	=173
0D	0A	1d	1r
.	.	1f	[1a
=174	=174	=174	=174
0C	0c	0e	1a]
.	.	.	1g
=175	=175	=175	=175
0D	0A	0d	0f
=176	=176	=176	=176
0AA	0c	0r	0e
=177	=177	=177	=177
1AA	0A	0r	1c
[1D	.	.	[1f
=178	=178	=178	=178
2D\]	0r	0r	2f/]
4C/	.	.	4e/
4BB/	.	.	4d/
1C	.	.	1e
=179	=179	=179	=179
1.F	0r	0r	1d
.	.	.	1r
4E\	.	.	.
4D\	.	.	.
=180	=180	=180	=180
1E	0r	0r	1g
1D	.	.	2f/
.	.	.	[2a/
=181	=181	=181	=181
1.C	0r	0r	2a/]
.	.	.	2g/
.	.	.	2e/
2D\	.	.	2f/
=182	=182	=182	=182
1E	0r	0r	2g/
.	.	.	1e
1AA	.	.	.
.	.	.	[2c/
=183	=183	=183	=183
1C	0r	0r	2c/]
.	.	.	2A/
1D	.	.	2B/
.	.	.	[2d/
=184	=184	=184	=184
1E	0r	0r	2d/]
.	.	.	2c/
2C/	.	.	2A/
[2D\	.	.	[2B/
=185	=185	=185	=185
2D\]	0r	0r	4B/]
.	.	.	4A/
2C/	.	.	1A
1BB	.	.	.
.	.	.	2G#i/
=186	=186	=186	=186
0AA	1c	0e	1A
.	1A	.	1c
=187	=187	=187	=187
1D	1r	1f	1d
1C	1c	1e	1e
=188	=188	=188	=188
1D	1A	1d	1f
1E	1r	2B\	1g
.	.	[2e\	.
=189	=189	=189	=189
1AA	1c	2e\]	1a
.	.	2d\	.
1D	1A	1d	1f
=190	=190	=190	=190
0AA	1r	2e\	0e
.	.	2.c\	.
.	1c	.	.
.	.	4B\	.
.	.	2c\	.
=191	=191	=191	=191
2D\	1A	2.d\	1d
1F	.	.	.
.	.	4c\	.
.	1r	2A/	1f
4E\	.	2F/	.
4D\	.	.	.
=192	=192	=192	=192
2C/	1c	2G/	2e/
1AA	.	2A/	1c
.	1A	2.E/	.
2AA/	.	.	2A/
.	.	4F/	.
=193	=193	=193	=193
2.GG/	1r	1G	1B
4FF/	.	.	.
[1AA	1c	1E	1A
=194	=194	=194	=194
1AA]	1A	2E/	1r
.	.	1F	.
1AA	1r	.	1a
.	.	4E/	.
.	.	4D/	.
=195	=195	=195	=195
1r	1c	1C	1g
[1D	1A	[1F	2a/
.	.	.	[2f/
=196	=196	=196	=196
1D]	1r	1F]	2f/]
.	.	.	2d/
1C	1c	1G	1e
=197	=197	=197	=197
1D	1A	1F	2d/
.	.	.	1f
2D\	1r	[1A	.
[2AA/	.	.	[2e/
=198	=198	=198	=198
2AA/]	1c	2A/]	2e/]
2C/	.	2G/	2e/
1D	1A	1F	2.d/
.	.	.	4c/
=199	=199	=199	=199
0AA	1r	1E	0e
.	1c	[1A	.
=200	=200	=200	=200
1D	1d	2A/]	1f
.	.	2B\	.
[1C	[1e	1c	1g
=201	=201	=201	=201
1C]	2e\]	2.c\	1e
.	2d\	.	.
.	.	4d\	.
1AA	1c	[1e	[1a
=202	=202	=202	=202
0E	0B	1e]	2a/]
.	.	.	2g#i/
.	.	1e	2g#i/
.	.	.	2f#i/
=203	=203	=203	=203
0AA;	0A;	0c#;	0a;
=204	=204	=204	=204
0D;	0A;	0d;	0f;
=205	=205	=205	=205
0C;	0c;	0G;	0e;
=206	=206	=206	=206
0D;	0A;	0F;	0f;
=207	=207	=207	=207
[0GG;	[0B;	[0G;	[0d;
=208	=208	=208	=208
0GG]	0B]	0G]	0d]
=209	=209	=209	=209
0AAl	0Al	0El	0cl
!!LO:LB:i:g=z
=210||	=210||	=210||	=210||
*>D	*>D	*>D	*>D
*clefF4	*clefGv2	*clefGv2	*clefG2
*k[]	*k[]	*k[]	*k[]
*M3/1	*M3/1	*M3/1	*M3/1
*met(O)	*met(O)	*met(O)	*met(O)
!!section: Cum sancto spiritu
!!!OMD: Cum sancto spiritu
0AA	0.r	0A	1.a
.	.	.	4g/
.	.	.	4f/
1C	.	2G/	1e
.	.	[2A/	.
=211	=211	=211	=211
2D\	0.r	4A/]	2f/
.	.	4B\	.
2C/	.	2.c\	2.e/
1AA	.	.	.
.	.	4B\	4d/
.	.	2.A/	2c/
1E	.	.	1B
.	.	8G#i/L	.
.	.	8F#/J	.
.	.	2G#i/	.
=212	=212	=212	=212
1AA	1c	1A	2A/
.	.	.	2c/
2r	1A	2D/	2d/
2.AA/	.	2C/	2.e/
.	1r	2.E/	.
4BB/	.	.	4d/
2C/	.	.	4c/
.	.	8F/L	4B/
.	.	8G/J	.
=213	=213	=213	=213
2D\	0.r	4F/	2A/
.	.	2A/	.
2AA/	.	.	2c/
.	.	4G/	.
2D\	.	4F/	4B/
.	.	4E/	4A/
2C/	.	1E	1A
1BB	.	.	.
.	.	2D/	2G#i/
=214	=214	=214	=214
0AA	0c	1E	1.A
.	.	2A/	.
.	.	2G/	2B/
1r	1A	1F	2c/
.	.	.	2d/
=215	=215	=215	=215
0AA	1r	2E/	2e/
.	.	2.A/	2f/
.	1c	.	2e/
.	.	4G/	.
.	.	4F/	2.a/
.	.	4E/	.
1D	1A	1F	.
.	.	.	4g/
.	.	.	4f/
.	.	.	4e/
=216	=216	=216	=216
1C	1r	1G	1e
1.F	1c	1.A	2r
.	.	.	1a
.	2d\	.	.
2E\	[2e\	2B\	2g/
=217	=217	=217	=217
2C/	2e\]	2c\	2cc\
2G\	2d\	4d\	2b\
.	.	4e\	.
2A\	2c\	4f\	2a/
.	.	2e\	.
2F\	2A/	.	2.a/
.	.	4d\	.
1E	1B	1e	.
.	.	.	8g#i/L
.	.	.	8f#i/J
.	.	.	2g#i/
=218	=218	=218	=218
2.AA/	0.A	2.c\	1a
4BB/	.	4d\	.
2C/	.	2e\	1r
1D	.	2A/	.
.	.	2F/	1d
4C/	.	2G/	.
4BB/	.	.	.
=219	=219	=219	=219
0AA	0.c	1A	1e
.	.	2A/	1.a
.	.	1F	.
1r	.	.	.
.	.	2E/	2g/
=220	=220	=220	=220
1D	0A	2F/	1f
.	.	2D/	.
2C/	.	2r	2e/
2D\	.	2d\	2f/
2E\	1G	2B\	2g/
2C/	.	2c\	[2e/
=221	=221	=221	=221
1D	1F	2A/	4e/]
.	.	.	4d/
.	.	2B\	1d
0AA	0E	0A	.
.	.	.	4c#i/
.	.	.	4B/
.	.	.	1c#i
=222	=222	=222	=222
0BB-	0.D	2F/	0d
.	.	4G/	.
.	.	2F/	.
.	.	2B-\	.
.	.	4A/	.
1BB-i	.	4F/	1d
.	.	2G/	.
.	.	8F/L	.
.	.	8G/J	.
=223	=223	=223	=223
1AA	1.E	1A	1c
0E	.	1G	0B
.	2r	.	.
.	1r	2r	.
.	.	2B\	.
=224	=224	=224	=224
2r	1A	2c\	1A
2D\	.	2d\	.
2E\	2G/	2B\	1r
2AA/	2A/	2c\	.
1D	1F	1A	1d
=225	=225	=225	=225
2AA/	2.E/	2A/	1e
2C/	.	2r	.
.	4F/	.	.
2BB/	2G/	2D/	2d/
2AA/	1A	2E/	2c/
2D\	.	4F/	2f/
.	.	4A/	.
2GG/	2B\	2G/	2g/
=226	=226	=226	=226
2r	2A/	2F/	2a/
2GG/	1d	2G/	2.b\
2BB/	.	2D/	.
.	.	.	4a/
2C/	2c\	2E/	1a
2D\	1B	2F/	.
2E\	.	2G/	2g#i/
=227	=227	=227	=227
2AA/	1A	2E/	1a
1D	.	4F/	.
.	.	2A/	.
.	2r	.	2f/
.	.	8G/L	.
.	.	8F/J	.
2C/	2c\	2E/	2g/
2D\	1A	2F/	2f/
2E\	.	2G/	4e/
.	.	.	4d/
=228	=228	=228	=228
1.F	2r	1A	1c
.	2c\	.	.
.	1A	2D/	1f
4E\	.	2F/	.
4D\	.	.	.
1C	2r	2G/	1e
.	2c\	2E/	.
=229	=229	=229	=229
1D	2A/	2F/	2d/
.	2r	2D/	1f
1BB-	2f\	1d	.
.	2d\	.	2g/
2AA/	2r	2c\	1a
[2D\	2f\	2A/	.
=230	=230	=230	=230
2D\]	2d\	2F/	2b\
2C/	2r	2G/	2cc\
2D\	2f\	2F/	2a/
2GG/	2d\	1G	4g/
.	.	.	4f/
2C/	2r	.	1e
2AA/	2c\	2A/	.
=231	=231	=231	=231
1D	2A/	2.F/	2d/
.	2r	.	2f/
.	.	8E/L	.
.	.	8D/J	.
2r	2c\	2C/	2e/
2D\	2A/	2F/	2d/
2C/	2r	2G/	2e/
[2F\	2c\	[2A/	2A/
=232	=232	=232	=232
4F\]	2A/	2A/]	2r
4E\	.	.	.
2D\	2r	2F/	2d/
2C/	1c	2G/	2e/
2.AA/	.	2A/	2.c/
.	1A	2E/	.
4BB/	.	.	4d/
2C/	.	2r	2e/
=233	=233	=233	=233
1D	2r	2F/	2d/
.	2F/	2D/	2.f/
2.F\	2D/	2r	.
.	.	.	4g/
.	2r	2F/	1a
4G\	.	.	.
2A\	2F/	2D/	.
2F\	2D/	2A/	4g/
.	.	.	4f/
=234	=234	=234	=234
1E	2r	1B	2g/
.	2G/	.	2.e/
2AA/	2A/	2c\	.
.	.	.	4d/
2D\	2F/	2.A/	1d
1AA	1E	.	.
.	.	4G/	.
.	.	2A/	2c#i/
=235	=235	=235	=235
2r	1D	2F/	1d
2BB-/	.	2G/	.
2AA/	2E/	2.A/	2r
2D\	2F/	.	2d/
.	.	4B\	.
2C/	2G/	1c	1e
2AA/	[2A/	.	.
=236	=236	=236	=236
2D\	2A/]	2r	2f/
2BB/	2B\	2D/	2g/
4AA/	2c\	2E/	2a/
2.D\	.	.	.
.	2d\	2F/	2b\
2C/	2e\	2G/	1cc
2F\	2c\	2A/	.
=237	=237	=237	=237
2D\	2d\	2B\	2f/
1C	2e\	2.c\	2g/
.	2.c\	.	2e/
.	.	4d\	.
2AA/	.	2.e\	2.a/
.	8B/L	.	.
.	8A/J	.	.
1E	1B	.	.
.	.	8d\L	4g#i/
.	.	8c\J	.
.	.	2B\	4g#i/
.	.	.	4f#i/
=238	=238	=238	=238
0.AAl	0.Al	0.c 0.el	0.al
==	==	==	==
*-	*-	*-	*-
!!!RDF**kern: l=long note in original notation
!!!RDF**kern: i=editorial accidental
!!!RDF**kern: V=start of tuplet marker
!!!RDF**kern: Z=end of tuplet marker
!!!ENC:	Chris Gage 11-20-2013
!!!END:	2014/06/14/
!!!EED:	Jesse Rodin
!!!EEV:	2015/03/09/
!!!ONB:	Translated from MusicXML and edited on 2015/03/09/ by Craig Sapp
!!muse2ps: T^@{OPR}^u^@{ONM}{. }@{OTL}^C^@{COM}^i2I150v85,85,85,150Q16
